dist/img/play.svg

<svg width="100" height="100" viewBox="0 0 100 100" fill="none" xmlns="http://www.w3.org/2000/svg">
<path d="M50.0003 0.319824C22.5884 0.319824 0.320312 22.5879 0.320312 49.9998C0.320312 77.4118 22.5884 99.6798 50.0003 99.6798C77.4122 99.6798 99.6803 77.4118 99.6803 49.9998C99.6803 22.5879 77.4122 0.319824 50.0003 0.319824ZM50.0003 4.63982C75.0775 4.63982 95.3603 24.9226 95.3603 49.9998C95.3603 75.077 75.0775 95.3598 50.0003 95.3598C24.9231 95.3598 4.64031 75.077 4.64031 49.9998C4.64031 24.9226 24.9231 4.63982 50.0003 4.63982ZM34.7917 24.16C34.5074 24.16 34.2258 24.2162 33.9632 24.3253C33.7006 24.4344 33.4621 24.5942 33.2614 24.7957C33.0608 24.9971 32.9018 25.2362 32.7938 25.4993C32.6857 25.7623 32.6306 26.0441 32.6317 26.3284V26.379C32.6317 26.3833 32.6317 26.3875 32.6317 26.3917L32.8131 73.84C32.8141 74.2195 32.9151 74.5921 33.1058 74.9201C33.2966 75.2482 33.5704 75.5203 33.8997 75.7089C34.2291 75.8975 34.6023 75.996 34.9818 75.9946C35.3613 75.9931 35.7337 75.8916 36.0616 75.7005L77.0088 51.7886C77.3366 51.5979 77.6085 51.3243 77.797 50.9952C77.9856 50.6661 78.0842 50.2932 78.0829 49.9139C78.0816 49.5346 77.9805 49.1624 77.7897 48.8346C77.599 48.5068 77.3252 48.235 76.9961 48.0465L35.8675 24.4469V24.4511C35.5405 24.2616 35.1696 24.1613 34.7917 24.16ZM36.9644 30.062L71.6045 49.9408L37.1205 70.0769L36.9644 30.062Z" fill="white"/>
</svg>

<svg xmlns="http://www.w3.org/2000/svg" viewBox="0 0 100 100"><path d="M50 .32C22.588.32.32 22.588.32 50S22.588 99.68 50 99.68 99.68 77.412 99.68 50 77.412.32 50 .32zm0 4.32c25.078 0 45.36 20.283 45.36 45.36 0 25.077-20.282 45.36-45.36 45.36C24.923 95.36 4.64 75.077 4.64 50 4.64 24.923 24.923 4.64 50 4.64zM34.792 24.16a2.16 2.16 0 00-2.16 2.168v.064l.181 47.448a2.16 2.16 0 003.249 1.86L77.009 51.79a2.16 2.16 0 00-.013-3.742l-41.128-23.6v.004a2.16 2.16 0 00-1.076-.291zm2.172 5.902l34.64 19.879-34.483 20.136-.157-40.015z"/></svg>
